X: 32862
T: Porthole Of The Kelp
R: reel
M: 4/4
K: Ddorian
|:F3 G F2 DE|FEFG ECCE|F2 DE FGAG|FDEC A,DDE|
F2 DE FGAB|cAGF EDCE|D2 (3EFG AddB|1 cAGF EDDE:|2 cAGF EDDc||
|:d2 Ad dcAG|FEFG EC C2|d2 Ad dcAG|Adce d2 de|
f2 ed dcAB|cAGF EDCE|D2 (3EFG AddB|1 cAGF EDDc:|2 cAGF EDDE||

